packages/tokens/icons/settings/size32Px.svg

<svg viewBox="0 0 32 32" fill="none" xmlns="http://www.w3.org/2000/svg" width="1em" height="1em"><path d="M27.8871 12.9293H26.634C26.3769 11.8046 25.9271 10.7763 25.3488 9.81234L26.2163 8.94473C26.4733 8.68766 26.4733 8.30206 26.2163 8.04499L23.4852 5.31362C23.2281 5.05656 22.8426 5.05656 22.5855 5.31362L21.718 6.18123C20.7541 5.60283 19.7259 5.15296 18.6014 4.89589V3.64267C18.6014 3.2892 18.3122 3 17.9587 3L14.1031 3C13.7496 3 13.4605 3.2892 13.4605 3.64267V4.89589C12.3359 5.15296 11.3077 5.60283 10.3438 6.18123L9.44415 5.31362C9.1871 5.05656 8.80154 5.05656 8.54449 5.31362L5.8134 8.04499C5.55635 8.30206 5.55635 8.68766 5.8134 8.94473L6.68092 9.81234C6.10257 10.7763 5.65275 11.8046 5.3957 12.9293H4.14261C3.78917 12.9293 3.5 13.2185 3.5 13.572L3.5 17.428C3.5 17.7815 3.78917 18.0707 4.14261 18.0707H5.3957C5.65275 19.1954 6.10257 20.2236 6.68092 21.1877L5.8134 22.0553C5.55635 22.3123 5.55635 22.6979 5.8134 22.955L8.54449 25.6864C8.80154 25.9434 9.1871 25.9434 9.44415 25.6864L10.3117 24.8188C11.2756 25.3972 12.3038 25.847 13.4283 26.1041V27.3573C13.4283 27.7108 13.7175 28 14.0709 28L17.9266 28C18.28 28 18.5692 27.7108 18.5692 27.3573V26.1041C19.6938 25.847 20.722 25.3972 21.6859 24.8188L22.5534 25.6864C22.8105 25.9434 23.196 25.9434 23.4531 25.6864L26.1842 22.955C26.4412 22.6979 26.4412 22.3123 26.1842 22.0553L25.3166 21.1877C25.895 20.2236 26.3448 19.1954 26.6019 18.0707H27.8549C28.2084 18.0707 28.4976 17.7815 28.4976 17.428L28.4976 13.572C28.5297 13.2185 28.2405 12.9293 27.8871 12.9293Z" stroke="currentColor" stroke-miterlimit="10"/><circle cx="16" cy="15.5002" r="6.79167" stroke="currentColor"/><circle cx="16" cy="15.5" r="4.5" stroke="currentColor"/></svg>

<svg xmlns="http://www.w3.org/2000/svg" fill="none" viewBox="0 0 32 32" width="1em" height="1em"><path stroke="currentColor" stroke-miterlimit="10" d="M27.887 12.93h-1.253c-.257-1.125-.707-2.154-1.285-3.118l.867-.867a.621.621 0 0 0 0-.9l-2.73-2.731a.621.621 0 0 0-.9 0l-.868.867c-.964-.578-1.992-1.028-3.117-1.285V3.643A.645.645 0 0 0 17.96 3h-3.856a.644.644 0 0 0-.643.643v1.253c-1.124.257-2.152.707-3.116 1.285l-.9-.867a.621.621 0 0 0-.9 0l-2.73 2.731a.621.621 0 0 0 0 .9l.867.867c-.578.964-1.028 1.993-1.285 3.117H4.143a.645.645 0 0 0-.643.643v3.856c0 .354.29.643.643.643h1.253c.257 1.124.707 2.153 1.285 3.117l-.868.867a.621.621 0 0 0 0 .9l2.731 2.731a.621.621 0 0 0 .9 0l.868-.867c.964.578 1.992 1.028 3.116 1.285v1.253c0 .354.29.643.643.643h3.856c.353 0 .642-.29.642-.643v-1.253c1.125-.257 2.153-.707 3.117-1.285l.867.867a.621.621 0 0 0 .9 0l2.731-2.731a.621.621 0 0 0 0-.9l-.867-.867c.578-.964 1.028-1.993 1.285-3.117h1.253c.353 0 .643-.29.643-.643v-3.856a.599.599 0 0 0-.61-.643Z"/><circle cx="16" cy="15.5" r="6.792" stroke="currentColor"/><circle cx="16" cy="15.5" r="4.5" stroke="currentColor"/></svg>
